!!!OTL: Natus est nobis infans
**kern
*staff1
=--
*clefC1
*k[]
*met(c)
*M4/4
2g
4f
4e
1f
=-
1g
1g
=-
1f
2g
4f
4e
=-
1f
2d
2g
=-
2.g
4g
2g
2a
=-
1.b
4a
4g
=-
0f
=-
!!linebreak:original
2f
2g
2a
1g
2e
1g
=-
1d
2f
2g
=-
2.f
4g
2a
2b
=-
2b
4a
4g
1f
=-
0g
=-=
*-
!!title: @{OTL}, @{GTL}, ed. @{ENC}
!!!pag:
!!!GTL: Hymnbook C
!!!EFL: 
!!!YEM: Creative Commons CC/BY/NC/SA 4.0
!!!ENC: Marcin Konik
!!!END: 2015-0m-dd
!!!EED: Marcin Konik
!!!EEV: 
!!!ONB: Encoded in vim by Marcin Konik
!!!CharacterEncoding: utf-8
!!!RDF**kern: l=long note in original notation
!!!RDF**kern: i=editorial accidental
!!muse2ps: z14jc180F
!!!COM: Anonim
!!!CDT: [?]
!!!TXO: Polish
!!!ODT: 
!!!GTL: Hymnbook C
!!!ARL: Opactwo św. Wojciecha, Staniątki 
!!!voices:	1
